;FLAVOR:Marlin
;TIME:2794
;Filament used: 2.77934m
;Layer height: 0.2
;Generated with Cura_SteamEngine 3.6.0
M82 ;absolute extrusion mode
G21 ; set units to millimeters
G90 ; use absolute positioning
M82 ; absolute extrusion mode
M104 S210.0 ; set extruder temp
M140 S60.0 ; set bed temp
M190 S60.0 ; wait for bed temp
M109 S210.0 ; wait for extruder temp
G28 W ; home all without mesh bed level
G80 ; mesh bed leveling
G92 E0.0 ; reset extruder distance position
G1 Y-3.0 F1000.0 ; go outside print area
G1 X60.0 E9.0 F1000.0 ; intro line
G1 X100.0 E21.5 F1000.0 ; intro line
G92 E0.0 ; reset extruder distance position
G92 E0
G1 F2100 E-0.8
;LAYER_COUNT:108
;LAYER:0
M107
G0 F7200 X107.961 Y90.431 Z0.2
;TYPE:SKIRT
G1 F2100 E0.08315
G1 F1800 X108.279 Y90.067 E0.09923
G1 X109.992 Y88.353 E0.17982
G1 X110.39 Y88.009 E0.19732
G1 X112.783 Y86.23 E0.2965
G1 X113.138 Y85.997 E0.31062
G1 X114.843 Y85.018 E0.37601
G1 X115.242 Y84.821 E0.39081
G1 X117.509 Y83.869 E0.47259
G1 X117.983 Y83.708 E0.48924
G1 X120.437 Y83.059 E0.57367
G1 X120.876 Y82.971 E0.58856
G1 X123.255 Y82.65 E0.6684
G1 X123.736 Y82.618 E0.68444
G1 X126.188 Y82.618 E0.76599
G1 X126.62 Y82.644 E0.78038
G1 X128.356 Y82.854 E0.83855
G1 X128.672 Y82.907 E0.8492
G1 X130.413 Y83.277 E0.9084
G1 X130.616 Y83.326 E0.91535
G1 X131.989 Y83.702 E0.96269
G1 X132.403 Y83.843 E0.97724
G1 X134.651 Y84.764 E1.05804
G1 X135.084 Y84.976 E1.07408
G1 X137.222 Y86.209 E1.15616
G1 X137.603 Y86.462 E1.17138
G1 X139.551 Y87.943 E1.25277
G1 X139.918 Y88.264 E1.26898
G1 X141.675 Y90.022 E1.35165
G1 X141.975 Y90.363 E1.36676
G1 X143.479 Y92.305 E1.44845
G1 X143.75 Y92.708 E1.46461
G1 X144.975 Y94.828 E1.54604
G1 X145.178 Y95.236 E1.5612
G1 X146.128 Y97.5 E1.64286
G1 X146.276 Y97.928 E1.65792
G1 X146.565 Y98.967 E1.69379
G1 X146.583 Y99.032 E1.69604
G1 X146.941 Y100.418 E1.74365
G1 X147.022 Y100.832 E1.75768
G1 X147.35 Y103.237 E1.83841
G1 X147.383 Y103.723 E1.85461
G1 X147.383 Y106.186 E1.93653
G1 X147.354 Y106.641 E1.95169
G1 X147.042 Y109.09 E2.03381
G1 X146.948 Y109.567 E2.04998
G1 X146.316 Y111.925 E2.13117
G1 X146.172 Y112.354 E2.14622
G1 X145.24 Y114.636 E2.22821
G1 X145.027 Y115.071 E2.24432
G1 X143.79 Y117.22 E2.32679
G1 X143.536 Y117.603 E2.34208
G1 X142.052 Y119.555 E2.42363
G1 X141.732 Y119.922 E2.43983
G1 X139.978 Y121.676 E2.52233
G1 X139.638 Y121.975 E2.53739
G1 X137.709 Y123.471 E2.61858
G1 X137.302 Y123.744 E2.63488
G1 X135.163 Y124.978 E2.71701
G1 X134.758 Y125.179 E2.73205
G1 X132.491 Y126.131 E2.81383
G1 X132.017 Y126.292 E2.83048
G1 X129.563 Y126.941 E2.91491
G1 X129.127 Y127.028 E2.92969
G1 X126.746 Y127.351 E3.00961
G1 X126.259 Y127.384 E3.02585
G1 X123.811 Y127.382 E3.10727
G1 X123.382 Y127.356 E3.12156
G1 X121.643 Y127.146 E3.17982
G1 X121.326 Y127.093 E3.19051
G1 X119.586 Y126.723 E3.24968
G1 X119.382 Y126.674 E3.25666
G1 X118.001 Y126.295 E3.30429
G1 X117.589 Y126.154 E3.31877
G1 X115.347 Y125.235 E3.39936
G1 X114.913 Y125.022 E3.41544
G1 X112.777 Y123.79 E3.49745
G1 X112.397 Y123.538 E3.51262
G1 X110.443 Y122.052 E3.59427
G1 X110.075 Y121.73 E3.61053
G1 X108.324 Y119.977 E3.69294
G1 X108.025 Y119.638 E3.70798
G1 X106.521 Y117.697 E3.78965
G1 X106.249 Y117.292 E3.80587
G1 X105.034 Y115.188 E3.88668
G1 X104.841 Y114.802 E3.90104
G1 X104.119 Y113.112 E3.96216
G1 X104.005 Y112.805 E3.97305
G1 X103.478 Y111.175 E4.03003
G1 X103.417 Y110.968 E4.03721
G1 X103.059 Y109.582 E4.08482
G1 X102.981 Y109.188 E4.09818
G1 X102.738 Y107.478 E4.15562
G1 X102.711 Y107.222 E4.16419
G1 X102.622 Y105.941 E4.20689
G1 X102.613 Y105.683 E4.21548
G1 X102.617 Y103.808 E4.27784
G1 X102.646 Y103.36 E4.29278
G1 X102.959 Y100.911 E4.37489
G1 X103.052 Y100.437 E4.39096
G1 X103.683 Y98.077 E4.47221
G1 X103.827 Y97.648 E4.48726
G1 X104.764 Y95.35 E4.5698
G1 X104.983 Y94.905 E4.5863
G1 X106.233 Y92.747 E4.66924
G1 X106.484 Y92.37 E4.68431
G1 X107.961 Y90.431 E4.76538
G0 F7200 X108.279 Y90.673
G1 F1800 X108.562 Y90.35 E4.77966
G1 X110.275 Y88.636 E4.86026
G1 X110.629 Y88.33 E4.87582
G1 X113.022 Y86.551 E4.975
G1 X113.338 Y86.344 E4.98756
G1 X115.043 Y85.365 E5.05296
G1 X115.397 Y85.19 E5.06609
G1 X117.664 Y84.238 E5.14787
G1 X118.085 Y84.094 E5.16267
G1 X120.539 Y83.445 E5.24709
G1 X120.929 Y83.368 E5.26032
G1 X123.308 Y83.047 E5.34016
G1 X123.736 Y83.018 E5.35443
G1 X126.188 Y83.018 E5.43598
G1 X126.572 Y83.041 E5.44878
G1 X128.308 Y83.251 E5.50694
G1 X128.589 Y83.298 E5.51641
G1 X130.33 Y83.668 E5.57561
G1 X130.51 Y83.712 E5.58177
G1 X131.883 Y84.088 E5.62912
G1 X132.251 Y84.213 E5.64205
G1 X134.499 Y85.134 E5.72285
G1 X134.885 Y85.323 E5.73714
G1 X137.023 Y86.556 E5.81923
G1 X137.361 Y86.781 E5.83274
G1 X139.309 Y88.262 E5.91413
G1 X139.635 Y88.547 E5.92853
G1 X141.392 Y90.305 E6.0112
G1 X141.659 Y90.608 E6.02463
G1 X143.163 Y92.55 E6.10632
G1 X143.404 Y92.908 E6.12068
G1 X144.629 Y95.028 E6.20211
G1 X144.809 Y95.391 E6.21559
G1 X145.759 Y97.655 E6.29725
G1 X145.891 Y98.035 E6.31063
G1 X146.18 Y99.074 E6.3465
G1 X146.195 Y99.132 E6.34849
G1 X146.553 Y100.518 E6.39611
G1 X146.626 Y100.886 E6.40858
G1 X146.954 Y103.291 E6.48932
G1 X146.983 Y103.723 E6.50372
G1 X146.983 Y106.186 E6.58564
G1 X146.957 Y106.59 E6.5991
G1 X146.645 Y109.039 E6.68121
G1 X146.562 Y109.463 E6.69558
G1 X145.93 Y111.821 E6.77678
G1 X145.801 Y112.203 E6.79019
G1 X144.869 Y114.485 E6.87217
G1 X144.68 Y114.871 E6.88647
G1 X143.443 Y117.02 E6.96894
G1 X143.217 Y117.361 E6.98255
G1 X141.733 Y119.313 E7.0641
G1 X141.449 Y119.639 E7.07848
G1 X139.695 Y121.393 E7.16099
G1 X139.393 Y121.659 E7.17437
G1 X137.464 Y123.155 E7.25556
G1 X137.102 Y123.398 E7.27006
G1 X134.963 Y124.632 E7.3522
G1 X134.603 Y124.81 E7.36555
G1 X132.336 Y125.762 E7.44733
G1 X131.915 Y125.906 E7.46213
G1 X129.461 Y126.555 E7.54656
G1 X129.073 Y126.632 E7.55972
G1 X126.692 Y126.955 E7.63963
G1 X126.259 Y126.984 E7.65407
G1 X123.811 Y126.982 E7.73549
G1 X123.43 Y126.959 E7.74818
G1 X121.691 Y126.749 E7.80644
G1 X121.409 Y126.702 E7.81595
G1 X119.669 Y126.332 E7.87512
G1 X119.488 Y126.288 E7.88131
G1 X118.107 Y125.909 E7.92894
G1 X117.74 Y125.784 E7.94184
G1 X115.498 Y124.865 E8.02243
G1 X115.113 Y124.676 E8.0367
G1 X112.977 Y123.444 E8.11871
G1 X112.639 Y123.219 E8.13221
G1 X110.685 Y121.733 E8.21386
G1 X110.358 Y121.447 E8.22831
G1 X108.607 Y119.694 E8.31072
G1 X108.341 Y119.393 E8.32408
G1 X106.837 Y117.452 E8.40575
G1 X106.596 Y117.092 E8.42016
G1 X105.381 Y114.988 E8.50097
G1 X105.209 Y114.645 E8.51373
G1 X104.487 Y112.955 E8.57486
G1 X104.385 Y112.682 E8.58455
G1 X103.858 Y111.052 E8.64153
G1 X103.805 Y110.868 E8.6479
G1 X103.447 Y109.482 E8.69551
G1 X103.377 Y109.132 E8.70738
G1 X103.134 Y107.422 E8.76482
G1 X103.11 Y107.194 E8.77245
G1 X103.021 Y105.913 E8.81516
G1 X103.013 Y105.684 E8.82278
G1 X103.017 Y103.809 E8.88514
G1 X103.043 Y103.41 E8.89844
G1 X103.356 Y100.961 E8.98056
G1 X103.439 Y100.54 E8.99483
G1 X104.07 Y98.18 E9.07608
G1 X104.198 Y97.799 E9.08945
G1 X105.135 Y95.501 E9.17199
G1 X105.329 Y95.105 E9.18666
G1 X106.579 Y92.947 E9.2696
G1 X106.802 Y92.612 E9.28299
G1 X108.279 Y90.673 E9.36406
G1 F2100 E8.56406
G1 F720 Z0.8
;MESH:magnet-Knobuntitled.stl
G0 F7200 X136.301 Y99.291 Z0.8
;TYPE:WALL-INNER
G1 F720 Z0.2
G1 F2100 E9.44721
G1 F1800 X136.706 Y98.689 E9.47134
G1 X137.029 Y98.042 E9.49539
G1 X137.267 Y97.357 E9.51951
G1 X137.412 Y96.646 E9.54365
G1 X137.462 Y95.924 E9.56772
G1 X137.419 Y95.203 E9.59174
G1 X137.281 Y94.49 E9.6159
G1 X137.051 Y93.803 E9.63999
G1 X136.734 Y93.152 E9.66408
G1 X136.318 Y92.525 E9.6891
G1 X135.84 Y91.981 E9.71319
G1 X135.296 Y91.503 E9.73728
G1 X134.693 Y91.1 E9.7614
G1 X134.046 Y90.781 E9.78539
G1 X133.359 Y90.546 E9.80954
G1 X132.648 Y90.405 E9.83365
G1 X131.925 Y90.358 E9.85775
G1 X131.203 Y90.405 E9.88181
G1 X130.492 Y90.546 E9.90592
G1 X129.807 Y90.78 E9.93
G1 X129.158 Y91.099 E9.95405
G1 X128.555 Y91.5 E9.97813
G1 X128.029 Y91.958 E10.00133
G1 X127.547 Y92.499 E10.02543
G1 X127.142 Y93.101 E10.04956
G1 X126.819 Y93.748 E10.07361
G1 X126.581 Y94.433 E10.09773
G1 X126.436 Y95.144 E10.12187
G1 X126.386 Y95.866 E10.14594
G1 X126.428 Y96.589 E10.17003
G1 X126.567 Y97.3 E10.19412
G1 X126.797 Y97.987 E10.21822
G1 X127.114 Y98.637 E10.24227
G1 X127.513 Y99.242 E10.26638
G1 X127.987 Y99.79 E10.29048
G1 X128.529 Y100.271 E10.31458
G1 X129.131 Y100.676 E10.33871
G1 X129.777 Y100.999 E10.36273
G1 X130.462 Y101.237 E10.38685
G1 X131.173 Y101.382 E10.41099
G1 X131.896 Y101.433 E10.43509
G1 X132.616 Y101.39 E10.45908
G1 X133.329 Y101.252 E10.48324
G1 X134.016 Y101.023 E10.50732
G1 X134.667 Y100.705 E10.53142
G1 X135.271 Y100.306 E10.5555
G1 X135.818 Y99.832 E10.57957
G1 X136.301 Y99.291 E10.60369
G0 F7200 X136.379 Y99.352
G0 X139.646 Y95.577
G0 X139.745 Y95.565
G1 F1800 X139.991 Y96.296 E10.62935
G1 X140.5 Y96.873 E10.65494
G1 X141.197 Y97.205 E10.68061
G1 X141.465 Y97.217 E10.68954
G1 X142.121 Y98.783 E10.74601
G1 X141.943 Y98.978 E10.75479
G1 X141.686 Y99.704 E10.7804
G1 X141.733 Y100.473 E10.80603
G1 X142.076 Y101.162 E10.83163
G1 X142.662 Y101.661 E10.85723
G1 X142.917 Y101.742 E10.86613
G1 X143.147 Y103.424 E10.92259
G1 X142.924 Y103.566 E10.93138
G1 X142.487 Y104.202 E10.95705
G1 X142.334 Y104.957 E10.98267
G1 X142.487 Y105.714 E11.00836
G1 X142.923 Y106.348 E11.03395
G1 X143.15 Y106.492 E11.04289
G1 X142.934 Y108.178 E11.09943
G1 X142.684 Y108.257 E11.10815
G1 X142.098 Y108.756 E11.13375
G1 X141.754 Y109.444 E11.15933
G1 X141.707 Y110.215 E11.18502
G1 X141.964 Y110.94 E11.2106
G1 X142.145 Y111.138 E11.21953
G1 X141.502 Y112.71 E11.27602
G1 X141.239 Y112.722 E11.28477
G1 X140.543 Y113.054 E11.31042
G1 X140.031 Y113.63 E11.33605
G1 X139.788 Y114.361 E11.36167
G1 X139.849 Y115.128 E11.38727
G1 X139.973 Y115.367 E11.39622
G1 X138.944 Y116.719 E11.45273
G1 X138.687 Y116.663 E11.46148
G1 X137.93 Y116.802 E11.48708
G1 X137.288 Y117.227 E11.51269
G1 X136.862 Y117.868 E11.53829
G1 X136.721 Y118.627 E11.56396
G1 X136.779 Y118.888 E11.57285
G1 X135.437 Y119.93 E11.62936
G1 X135.205 Y119.808 E11.63808
G1 X134.435 Y119.745 E11.66378
G1 X133.704 Y119.991 E11.68943
G1 X133.127 Y120.5 E11.71502
G1 X132.794 Y121.196 E11.74068
G1 X132.782 Y121.464 E11.74961
G1 X131.217 Y122.121 E11.80606
G1 X131.022 Y121.943 E11.81484
G1 X130.296 Y121.686 E11.84046
G1 X129.527 Y121.733 E11.86608
G1 X128.84 Y122.076 E11.89162
G1 X128.338 Y122.66 E11.91723
G1 X128.257 Y122.916 E11.92617
G1 X126.575 Y123.147 E11.98263
G1 X126.434 Y122.924 E11.99141
G1 X125.798 Y122.487 E12.01708
G1 X125.043 Y122.334 E12.0427
G1 X124.286 Y122.487 E12.06838
G1 X123.651 Y122.924 E12.09402
G1 X123.508 Y123.149 E12.10289
G1 X121.823 Y122.935 E12.15938
G1 X121.744 Y122.684 E12.16813
G1 X121.243 Y122.097 E12.1938
G1 X120.554 Y121.755 E12.21939
G1 X119.784 Y121.708 E12.24504
G1 X119.059 Y121.965 E12.27063
G1 X118.861 Y122.146 E12.27955
G1 X117.29 Y121.503 E12.33601
G1 X117.278 Y121.239 E12.3448
G1 X116.946 Y120.542 E12.37048
G1 X116.369 Y120.032 E12.39609
G1 X115.638 Y119.789 E12.42171
G1 X114.871 Y119.85 E12.4473
G1 X114.632 Y119.974 E12.45626
G1 X113.28 Y118.945 E12.51277
G1 X113.337 Y118.687 E12.52156
G1 X113.198 Y117.93 E12.54716
G1 X112.773 Y117.287 E12.57279
G1 X112.13 Y116.863 E12.59841
G1 X111.372 Y116.722 E12.62405
G1 X111.112 Y116.78 E12.63291
G1 X110.07 Y115.437 E12.68945
G1 X110.192 Y115.205 E12.69817
G1 X110.255 Y114.435 E12.72386
G1 X110.009 Y113.704 E12.74952
G1 X109.5 Y113.127 E12.77511
G1 X108.803 Y112.795 E12.80078
G1 X108.535 Y112.783 E12.80971
G1 X107.879 Y111.217 E12.86618
G1 X108.057 Y111.022 E12.87496
G1 X108.314 Y110.296 E12.90057
G1 X108.267 Y109.527 E12.9262
G1 X107.924 Y108.838 E12.9518
G1 X107.338 Y108.339 E12.9774
G1 X107.083 Y108.258 E12.9863
G1 X106.853 Y106.576 E13.04276
G1 X107.076 Y106.434 E13.05155
G1 X107.513 Y105.798 E13.07722
G1 X107.666 Y105.043 E13.10284
G1 X107.514 Y104.287 E13.12849
G1 X107.077 Y103.652 E13.15413
G1 X106.85 Y103.508 E13.16307
G1 X107.066 Y101.822 E13.2196
G1 X107.316 Y101.743 E13.22832
G1 X107.902 Y101.244 E13.25392
G1 X108.246 Y100.556 E13.27951
G1 X108.293 Y99.785 E13.3052
G1 X108.036 Y99.06 E13.33078
G1 X107.855 Y98.862 E13.3397
G1 X108.499 Y97.286 E13.39633
G1 X108.778 Y97.272 E13.40562
G1 X109.458 Y96.946 E13.4307
G1 X109.969 Y96.37 E13.45631
G1 X110.212 Y95.639 E13.48193
G1 X110.151 Y94.872 E13.50753
G1 X110.027 Y94.633 E13.51648
G1 X111.056 Y93.281 E13.57299
G1 X111.313 Y93.337 E13.58174
G1 X112.07 Y93.198 E13.60734
G1 X112.712 Y92.773 E13.63295
G1 X113.138 Y92.132 E13.65855
G1 X113.279 Y91.373 E13.68422
G1 X113.221 Y91.112 E13.69311
G1 X114.563 Y90.07 E13.74962
G1 X114.795 Y90.192 E13.75834
G1 X115.565 Y90.255 E13.78404
G1 X116.296 Y90.009 E13.80969
G1 X116.873 Y89.5 E13.83528
G1 X117.206 Y88.804 E13.86094
G1 X117.218 Y88.536 E13.86987
G1 X118.783 Y87.879 E13.92632
G1 X118.978 Y88.057 E13.9351
G1 X119.704 Y88.314 E13.96072
G1 X120.473 Y88.267 E13.98634
G1 X121.16 Y87.924 E14.01188
G1 X121.662 Y87.34 E14.03749
G1 X121.743 Y87.084 E14.04643
G1 X123.425 Y86.853 E14.10289
G1 X123.566 Y87.076 E14.11167
G1 X124.202 Y87.513 E14.13734
G1 X124.957 Y87.666 E14.16296
G1 X125.714 Y87.513 E14.18864
G1 X126.349 Y87.076 E14.21428
G1 X126.492 Y86.851 E14.22315
G1 X128.177 Y87.065 E14.27964
G1 X128.256 Y87.316 E14.28839
G1 X128.757 Y87.903 E14.31406
G1 X129.446 Y88.245 E14.33965
G1 X130.216 Y88.292 E14.3653
G1 X130.941 Y88.035 E14.39089
G1 X131.139 Y87.854 E14.39981
G1 X132.71 Y88.497 E14.45627
G1 X132.722 Y88.761 E14.46506
G1 X133.054 Y89.458 E14.49074
G1 X133.631 Y89.968 E14.51635
G1 X134.362 Y90.211 E14.54197
G1 X135.129 Y90.15 E14.56756
G1 X135.368 Y90.026 E14.57652
G1 X136.72 Y91.055 E14.63303
G1 X136.663 Y91.313 E14.64182
G1 X136.802 Y92.07 E14.66742
G1 X137.227 Y92.713 E14.69305
G1 X137.87 Y93.137 E14.71867
G1 X138.628 Y93.278 E14.74431
G1 X138.888 Y93.22 E14.75317
G1 X139.93 Y94.563 E14.80971
G1 X139.808 Y94.795 E14.81843
G1 X139.745 Y95.565 E14.84412
G0 F7200 X140.15 Y95.516
;TYPE:WALL-OUTER
G1 F1800 X140.344 Y96.092 E14.86434
G1 X140.746 Y96.547 E14.88453
G1 X141.296 Y96.809 E14.90479
G1 X141.736 Y96.828 E14.91944
G1 X142.589 Y98.864 E14.99286
G1 X142.293 Y99.188 E15.00746
G1 X142.09 Y99.761 E15.02768
G1 X142.127 Y100.367 E15.04787
G1 X142.398 Y100.91 E15.06806
G1 X142.86 Y101.304 E15.08825
G1 X143.279 Y101.437 E15.10287
G1 X143.578 Y103.625 E15.17632
G1 X143.207 Y103.86 E15.19093
G1 X142.863 Y104.361 E15.21114
G1 X142.742 Y104.957 E15.23137
G1 X142.863 Y105.555 E15.25166
G1 X143.206 Y106.054 E15.2718
G1 X143.579 Y106.291 E15.2865
G1 X143.299 Y108.482 E15.35997
G1 X142.882 Y108.614 E15.37451
G1 X142.419 Y109.008 E15.39473
G1 X142.148 Y109.55 E15.41489
G1 X142.111 Y110.158 E15.43515
G1 X142.314 Y110.73 E15.45534
G1 X142.611 Y111.055 E15.46998
G1 X141.775 Y113.099 E15.54343
G1 X141.338 Y113.118 E15.55798
G1 X140.788 Y113.38 E15.57824
G1 X140.385 Y113.834 E15.59843
G1 X140.193 Y114.41 E15.61863
G1 X140.241 Y115.016 E15.63884
G1 X140.444 Y115.407 E15.6535
G1 X139.107 Y117.165 E15.72696
G1 X138.68 Y117.071 E15.7415
G1 X138.083 Y117.181 E15.76169
G1 X137.576 Y117.516 E15.7819
G1 X137.24 Y118.021 E15.80208
G1 X137.129 Y118.62 E15.82234
G1 X137.224 Y119.049 E15.83695
G1 X135.479 Y120.403 E15.91041
G1 X135.091 Y120.2 E15.92498
G1 X134.484 Y120.15 E15.94524
G1 X133.908 Y120.344 E15.96545
G1 X133.453 Y120.746 E15.98564
G1 X133.19 Y121.295 E16.00589
G1 X133.171 Y121.735 E16.02054
G1 X131.136 Y122.589 E16.09394
G1 X130.812 Y122.293 E16.10854
G1 X130.239 Y122.09 E16.12876
G1 X129.633 Y122.127 E16.14895
G1 X129.091 Y122.398 E16.16911
G1 X128.695 Y122.859 E16.18932
G1 X128.562 Y123.278 E16.20394
G1 X126.375 Y123.578 E16.27736
G1 X126.14 Y123.207 E16.29197
G1 X125.639 Y122.863 E16.31218
G1 X125.043 Y122.742 E16.33241
G1 X124.445 Y122.863 E16.3527
G1 X123.945 Y123.207 E16.37289
G1 X123.71 Y123.578 E16.38749
G1 X121.518 Y123.3 E16.46098
G1 X121.387 Y122.882 E16.47555
G1 X120.992 Y122.419 E16.4958
G1 X120.449 Y122.149 E16.51596
G1 X119.841 Y122.112 E16.53622
G1 X119.269 Y122.315 E16.55641
G1 X118.944 Y122.612 E16.57106
G1 X116.901 Y121.776 E16.64447
G1 X116.882 Y121.338 E16.65906
G1 X116.62 Y120.788 E16.67932
G1 X116.165 Y120.386 E16.69951
G1 X115.589 Y120.194 E16.71971
G1 X114.983 Y120.242 E16.73993
